!!!OTL: WENN ICH NACH WAPPUSHOF GEH
!!!ARE: Europa, Mitteleuropa, Deutschland, Franken
!!!SCT: E0600
!!!YEM: Copyright 1995, estate of Helmut Schaffrath.
**kern
*ICvox
*Ivox
*M3/8
*k[f#c#]
*D:
=1
{8d
8f#
8g
=2
8e
8g
8g
=3
4.f#}
=4
{8a
8a
16dd
16a
=5
8.a
16g
16e
16g
=6
4f#
8r}
=7
{8a
16a
16dd
8a
=8
8g
16g
16ee
8g}
=9
{8f#
16d
16a
8f#
=10
16e
16d
16e
16f#
8e}
=11
{8d
8f#
8f#
=12
8a
8g
16g
16b
=13
4.a}
=14
{16d
16f#
16a
16dd
8a
=15
8.a
16g
16e
16g
=16
4f#
8r}
==
!!!AGN: Liebes - Lied
!!!ONB: ESAC (Essen Associative Code) Database: ERK1
!!!AMT: simple triple
!!!AIN: vox
!!!EED: Helmut Schaffrath
!!!EEV: 1.0
*-
